css/images/noun-paris-1039747.svg

<svg xmlns="http://www.w3.org/2000/svg" xmlns:xlink="http://www.w3.org/1999/xlink" version="1.1" x="0px" y="0px" viewBox="0 0 150 187.5" enable-background="new 0 0 150 150" xml:space="preserve"><g><g><path d="M116.4124069,152.4911041H81.7819214v-17.0523529H68.8846817v17.0523529H33.5875969l18.3292274-30.7722855h46.1669388    L116.4124069,152.4911041z M84.1854477,150.0875854h27.9973145l-15.465065-25.9652405H53.2828903l-15.4656525,25.9652405    h28.6639175v-17.0523529h17.7042923V150.0875854z"/></g><g><path d="M103.2364349,124.122345h-56.447052l-4.0277824-11.3944473h64.5026245L103.2364349,124.122345z M48.4887505,121.7188187    h53.0483208l2.3284149-6.5873947H46.1603355L48.4887505,121.7188187z"/></g><g><path d="M95.9900665,115.131424H54.3197632l6.2805023-32.3226089h29.1092987L95.9900665,115.131424z M57.2349777,112.7278976    H93.074852l-5.3463211-27.5155563H62.581295L57.2349777,112.7278976z"/></g><g><path d="M84.0792389,84.2499924c-2.898201-14.2468719-4.3546295-39.9040375-5.3967896-63.123642l2.4011841-0.1079712    c1.0380402,23.1268902,2.485672,48.6678696,5.3510132,62.7527847L84.0792389,84.2499924z"/></g><g><path d="M66.1789551,84.2499924l-2.3554077-0.4788284c2.8665085-14.0907822,4.3135529-39.6294174,5.3510132-62.7527847    l2.4011765,0.1079712C70.5341721,44.3424339,69.0783234,69.9972534,66.1789551,84.2499924z"/></g><g><path d="M82.7278366,22.2741261h-14.835434c-2.9404449,0-5.3328171-2.3923779-5.3328171-5.3328228v-0.2640591    c0-2.9404469,2.3923721-5.3328228,5.3328171-5.3328228h14.835434c2.9404449,0,5.3328247,2.3923759,5.3328247,5.3328228v0.2640591    C88.0606613,19.8817482,85.6682816,22.2741261,82.7278366,22.2741261z M67.8924026,13.7479467    c-1.615448,0-2.9292908,1.3138418-2.9292908,2.9292974v0.2640591c0,1.6154556,1.3138428,2.9292965,2.9292908,2.9292965h14.835434    c1.6154556,0,2.9292984-1.3138409,2.9292984-2.9292965v-0.2640591c0-1.6154556-1.3138428-2.9292974-2.9292984-2.9292974    H67.8924026z"/></g><g><rect x="74.1312485" y="-2.4911072" width="2.4035256" height="14.1072159"/></g></g><text x="0" y="165" fill="#000000" font-size="5px" font-weight="bold" font-family="'Helvetica Neue', Helvetica, Arial-Unicode, Arial, Sans-serif">Created by DinosoftLabs</text><text x="0" y="170" fill="#000000" font-size="5px" font-weight="bold" font-family="'Helvetica Neue', Helvetica, Arial-Unicode, Arial, Sans-serif">from the Noun Project</text></svg>

<svg width="150" height="188" viewBox="0 0 150 188" fill="none" xmlns="http://www.w3.org/2000/svg">
<g clip-path="url(#clip0_1_387)">
<path d="M116.412 152.491H81.7819V135.439H68.8847V152.491H33.5876L51.9168 121.719H98.0838L116.412 152.491ZM84.1855 150.088H112.183L96.7177 124.122H53.2829L37.8172 150.088H66.4812V133.035H84.1855V150.088Z" fill="black"/>
<path d="M103.236 124.122H46.7894L42.7616 112.728H107.264L103.236 124.122ZM48.4887 121.719H101.537L103.865 115.131H46.1603L48.4887 121.719Z" fill="black"/>
<path d="M95.9901 115.131H54.3198L60.6003 82.8088H89.7096L95.9901 115.131ZM57.235 112.728H93.0749L87.7285 85.2123H62.5813L57.235 112.728Z" fill="black"/>
<path d="M84.0793 84.25C81.1811 70.0031 79.7246 44.346 78.6825 21.1264L81.0836 21.0184C82.1217 44.1453 83.5693 69.6863 86.4347 83.7712L84.0793 84.25Z" fill="black"/>
<path d="M66.179 84.25L63.8235 83.7712C66.6901 69.6804 68.1371 44.1418 69.1746 21.0184L71.5757 21.1264C70.5342 44.3424 69.0783 69.9973 66.179 84.25Z" fill="black"/>
<path d="M82.7279 22.2741H67.8924C64.952 22.2741 62.5596 19.8817 62.5596 16.9413V16.6772C62.5596 13.7368 64.952 11.3444 67.8924 11.3444H82.7279C85.6683 11.3444 88.0607 13.7368 88.0607 16.6772V16.9413C88.0607 19.8817 85.6683 22.2741 82.7279 22.2741ZM67.8924 13.7479C66.277 13.7479 64.9631 15.0618 64.9631 16.6772V16.9413C64.9631 18.5568 66.277 19.8706 67.8924 19.8706H82.7279C84.3433 19.8706 85.6572 18.5568 85.6572 16.9413V16.6772C85.6572 15.0618 84.3433 13.7479 82.7279 13.7479H67.8924Z" fill="black"/>
<path d="M76.5348 -2.4911H74.1313V11.6161H76.5348V-2.4911Z" fill="black"/>
</g>
<defs>
<clipPath id="clip0_1_387">
<rect width="150" height="187.5" fill="white"/>
</clipPath>
</defs>
</svg>
